X: 29167
T: New Barracks
R: reel
M: 4/4
K: Gmajor
D2GG G2G2|FGA2 AFD2|d2cB A2G2|EFG2 B2A2|
D2GG G2G2|FGA2 AFD2|d2cB A2G2|DEF2G4:|
|:A2FE D2D2|c2BA d2d2|EFG2 A2GF|GAB2 A4|
A2FE D2D2|c2BA d2d2|DEF2 G2AB|A2F2 G4:|

